X:156
M:6/4
L:1/4
K:Bb
D D G2 A2 | B B B2 A2 | B B d2 (c B) | A A G4 | D D G2 A2 | B B B2 A2 | B B d2 (c B) | A A G4 | G A B2 G2 | A B c2 A2 | B c d2 (B d) | e/d/ c d/c/ B c/B/ A/G/ | d4 !sintro!B B | d2 (c B) A A | G6 !eintro!|]
